X: 1
T: Polska
R: polska
S: Janet Gage, Oct 1998
B:
D:
Z: John Chambers <jc@trillian.mit.edu>
N:
M: 3/4
L: 1/16
K: C
|: F- \
| E3G c4 d3B | cBcd e6 B2- | c2e2 a6 g2- | ^f2e2 d2c2 B2AB |
| d2c2 AB3 G3F- |  E3G c4 d3B | cBcd e6 B2- | c2e2 a4 g3B | d4 c7 :|
|: e- \
| g3e gc'3 e3f | a4 g2{ag}e2 c3e | g2e2 f2a2 g2B2 |1,3 (3d4c4A4 G3 :|2,4 d2Bd c7 :|
